svg/24/logo-microsoft-project.svg

<svg width="24" height="24" viewBox="0 0 24 24" fill="currentColor" xmlns="http://www.w3.org/2000/svg"><path d="M6.84375 9.99805C7.16276 9.99805 7.41667 10.0599 7.60547 10.1836C7.79427 10.3073 7.88867 10.5417 7.88867 10.8867C7.88867 11.0365 7.85612 11.1569 7.79102 11.248C7.72591 11.3392 7.63802 11.4173 7.52734 11.4824C7.41667 11.5475 7.29948 11.5866 7.17578 11.5996C7.05208 11.6126 6.92839 11.6257 6.80469 11.6387H5.90625V9.99805H6.84375ZM22 15.3301V19.9199C22 20.1478 21.9186 20.3431 21.7559 20.5059C21.5931 20.6686 21.3978 20.75 21.1699 20.75H9.70508C9.47721 20.75 9.2819 20.6686 9.11914 20.5059C8.95638 20.3431 8.875 20.1478 8.875 19.9199V17H2.83008C2.60221 17 2.4069 16.9186 2.24414 16.7559C2.08138 16.5931 2 16.3978 2 16.1699V7.83008C2 7.60221 2.08138 7.4069 2.24414 7.24414C2.4069 7.08138 2.60221 7 2.83008 7H4.5V4.08008C4.5 3.85221 4.58138 3.6569 4.74414 3.49414C4.9069 3.33138 5.10221 3.25 5.33008 3.25H14.2949C14.5228 3.25 14.7181 3.33138 14.8809 3.49414C15.0436 3.6569 15.125 3.85221 15.125 4.08008V8.875H17.4199C17.6478 8.875 17.8431 8.95638 18.0059 9.11914C18.1686 9.2819 18.25 9.47721 18.25 9.70508V14.5H21.1699C21.3978 14.5 21.5931 14.5814 21.7559 14.7441C21.9186 14.9069 22 15.1022 22 15.3301ZM17 10.125H12V14.5H17V10.125ZM9.49023 10.8379C9.49023 10.4603 9.42839 10.138 9.30469 9.87109C9.18099 9.60417 9.00521 9.38281 8.77734 9.20703C8.54948 9.03125 8.28906 8.90755 7.99609 8.83594C7.70312 8.76432 7.3776 8.72526 7.01953 8.71875H4.37305V15.2715H5.90625V12.9863H6.94141C7.26042 12.9863 7.56966 12.9408 7.86914 12.8496C8.16862 12.7585 8.44206 12.6217 8.68945 12.4395C8.93685 12.2572 9.12891 12.0326 9.26562 11.7656C9.40234 11.4987 9.47721 11.1895 9.49023 10.8379ZM5.75 7H11.1699C11.3978 7 11.5931 7.08138 11.7559 7.24414C11.9186 7.4069 12 7.60221 12 7.83008V8.875H13.875V4.5H5.75V7ZM20.75 19.5V15.75H12V16.1699C12 16.3978 11.9186 16.5931 11.7559 16.7559C11.5931 16.9186 11.3978 17 11.1699 17H10.125V19.5H20.75Z"/></svg>

<svg xmlns="http://www.w3.org/2000/svg" width="24" height="24" fill="currentColor" viewBox="0 0 24 24">
  <path d="M6.844 9.998c.319 0 .573.062.761.186.19.123.284.358.284.703 0 .15-.033.27-.098.361a.842.842 0 0 1-.264.234.865.865 0 0 1-.351.118l-.371.039h-.899V9.998h.938ZM22 15.33v4.59a.8.8 0 0 1-.244.586.8.8 0 0 1-.586.244H9.705a.8.8 0 0 1-.586-.244.8.8 0 0 1-.244-.586V17H2.83a.8.8 0 0 1-.586-.244A.8.8 0 0 1 2 16.17V7.83a.8.8 0 0 1 .244-.586A.8.8 0 0 1 2.83 7H4.5V4.08a.8.8 0 0 1 .244-.586.8.8 0 0 1 .586-.244h8.965a.8.8 0 0 1 .586.244.8.8 0 0 1 .244.586v4.795h2.295a.8.8 0 0 1 .586.244.8.8 0 0 1 .244.586V14.5h2.92a.8.8 0 0 1 .586.244.8.8 0 0 1 .244.586Zm-5-5.205h-5V14.5h5v-4.375Zm-7.51.713c0-.378-.062-.7-.185-.967a1.76 1.76 0 0 0-.528-.664 2.066 2.066 0 0 0-.78-.371 4.46 4.46 0 0 0-.977-.117H4.373v6.553h1.533v-2.286h1.035c.32 0 .629-.045.928-.136.3-.091.573-.228.82-.41.248-.183.44-.407.577-.674a2.19 2.19 0 0 0 .224-.928ZM5.75 7h5.42a.8.8 0 0 1 .586.244.8.8 0 0 1 .244.586v1.045h1.875V4.5H5.75V7Zm15 12.5v-3.75H12v.42a.8.8 0 0 1-.244.586.8.8 0 0 1-.586.244h-1.045v2.5H20.75Z"/>
</svg>
